X: 1
T: Eileen O'Brien's
M: 4/4
L: 1/8
R: reel
K: Cmaj
c2Bc AE~E2|CDEG cede|cG~G2 AGEG|GAGE EDCA,|
G,A,CD ~E3G|AGFA GcAB|(3cde dB cAdc|AGED CDEG|
~c3d AGED|~C3A, G,CEG|BcBc AE~E2|cAGE ~D2CA,|
G,A,CD ~E3G|AGFA GcAB|(3cde dB cAdc|AGED CDEG||
ceAc GAcd|egdB cBGA|_B2dB FBdB|c_BcB BGFG|
~c3d ec~c2|ecdB cBGB|gedB cAGE|FDGE CDEG|
ceAc GAcd|egdB cBGA|~_B3d ~f3a|gfdc _BGFG|
~c3d ec~c2|ecdB cBGB|gedB cAGE|~F3D (3EFG AB||
